static/assets/img/icons/theme/general/smile.svg

<svg height="24" viewBox="0 0 24 24" width="24" xmlns="http://www.w3.org/2000/svg"><g fill="none" fill-rule="evenodd"><path d="m0 0h24v24h-24z" opacity="0"/><g fill="#000"><rect height="20" opacity=".3" rx="10" width="20" x="2" y="2"/><path d="m6.16794971 14.5547002c-.30635246-.4595287-.18217859-1.080398.27735009-1.3867505.45952869-.3063525 1.08039804-.1821786 1.38675049.2773501 1.15703511 1.7355527 2.52228101 2.5547002 4.16794971 2.5547002s3.0109146-.8191475 4.1679497-2.5547002c.3063525-.4595287.9272218-.5837026 1.3867505-.2773501s.5837026.9272218.2773501 1.3867505c-1.5096316 2.2644473-3.477719 3.4452998-5.8320503 3.4452998-2.35433129 0-4.32241873-1.1808525-5.83205029-3.4452998z"/></g></g></svg>

<svg width="24px" height="24px" viewBox="0 0 24 24" version="1.1" xmlns="http://www.w3.org/2000/svg" xmlns:xlink="http://www.w3.org/1999/xlink">
    <title>Icon For Smile</title>
    <g stroke="none" stroke-width="1" fill="none" fill-rule="evenodd">
        <rect opacity="0" x="0" y="0" width="24" height="24"></rect>
        <rect fill="#000000" opacity="0.3" x="2" y="2" width="20" height="20" rx="10"></rect>
        <path d="M6.16794971,14.5547002 C5.86159725,14.0951715 5.98577112,13.4743022 6.4452998,13.1679497 C6.90482849,12.8615972 7.52569784,12.9857711 7.83205029,13.4452998 C8.9890854,15.1808525 10.3543313,16 12,16 C13.6456687,16 15.0109146,15.1808525 16.1679497,13.4452998 C16.4743022,12.9857711 17.0951715,12.8615972 17.5547002,13.1679497 C18.0142289,13.4743022 18.1384028,14.0951715 17.8320503,14.5547002 C16.3224187,16.8191475 14.3543313,18 12,18 C9.64566871,18 7.67758127,16.8191475 6.16794971,14.5547002 Z" fill="#000000"></path>
    </g>
</svg>
